X:2
T:Lazy Kate
M:2/4
L:1/16
Z:jason
B:From the playing of Bob Walters, 1950
K:A
CB, | A,2C2 E2A2 | cBcd cAE2 | B,2EF GFEG | cABc BGEC |
A,B,CE A2A2 | cBcd cAE2 | B,2EF GEFE | CA,2A, A,2 :|
|: AB | ce2f edcB | cdef edcA | B2Bc BGE2 | BABc BGE2 |
ce2f edcB | cdef e2ef | =gfed cABA | EFAB A2 :|

